X: 18
T: Missa O venus bant &mdash; Sanctus
C: Gaspar van Weerbeke
%%abc-version 2.0
%%abcx-abcm2ps-target-version 5.9.1 (29 Sep 2008)
%%abc-creator hum2abc beta
%%abcx-conversion-date 2022/03/06 13:05:57
%%abc-copyright Copyright 2014, Pavanello, Agnese
%%abc-edited-by Mair-Gruber, Roland
%%humdrum-veritas 1533414096
%%humdrum-veritas-data 2807161805
%%linebreak <none>
%%barnumbers 0
L: 1/4
M: 3/2
N: Derived from Gas0102d-Missa_O_venus_bant-Sanctus.krn
%%staves [1 2 3 4]
V: 1 clef=treble
V: 2 clef=treble-8
V: 3 clef=treble-8
V: 4 clef=bass
K: C
[V:1] G4F2 | 
[V:2] G4A2 | 
[V:3] z6 | 
[V:4] z6 | 
[V:1] ED2G2^F | 
[V:2] G>ABcA2 | 
[V:3] z6 | 
[V:4] z6 | 
[V:1] G>ABcA2 | 
[V:2] Gg2ef2 | 
[V:3] z6 | 
[V:4] z6 | 
[V:1] G2zG2G- | 
[V:2] eg2c2G- | 
[V:3] z6 | 
[V:4] z6 | 
[V:1] G2A2A3/B/ | 
[V:2] Gc>BA/G/F2 | 
[V:3] z6 | 
[V:4] z6 | 
[V:1] c/B<cB/A/G/F2 | 
[V:2] zA>Bcd2 | 
[V:3] z6 | 
[V:4] z6 | 
[V:1] zA>Bcd2- | 
[V:2] f2>e2df- | 
[V:3] z6 | 
[V:4] z6 | 
[V:1] dcBd3 | 
[V:2] fed2f2 | 
[V:3] z6 | 
[V:4] z6 | 
[V:1] cBdBAc- | 
[V:2] ed2gfa- | 
[V:3] z6 | 
[V:4] z6 | 
[V:1] cBA2zG- | 
[V:2] ag2^fg2 | 
[V:3] z6 | 
[V:4] z6 | 
[V:1] G/A/B/c<dc/AB- | 
[V:2] zg>fdcd- | 
[V:3] z6 | 
[V:4] z6 | 
[V:1] BA/G/^F2G3/=F/ | 
[V:2] dc/B/A2G3/A/ | 
[V:3] z6 | 
[V:4] z6 | 
[V:1] DF>ECE3/D/ | 
[V:2] B/c<dc<AB/c | 
[V:3] z6 | 
[V:4] z6 | 
[V:1] B,D>B,CA,2 | 
[V:2] dB>GA>E^F | 
[V:3] z6 | 
[V:4] z6 | 
[V:1] G,2z2z2 | 
[V:2] G2g2g3/f/ | 
[V:3] G6- | 
[V:4] G,,6 | 
[V:1] G2G>AB2 | 
[V:2] e2>c2d2 | 
[V:3] G6 | 
[V:4] C,4B,,2 | 
[V:1] c2A3G/F/ | 
[V:2] c2d>cA3/B/ | 
[V:3] A6 | 
[V:4] A,,2D,>E,F,2 | 
[V:1] E>FG2Ac | 
[V:2] c>BGDEC | 
[V:3] G4F2 | 
[V:4] C,2>B,,2A,,2 | 
[V:1] BA/G/^FA>EF | 
[V:2] D2zd>cA | 
[V:3] G2A4 | 
[V:4] G,,2D,2D,2 | 
[V:1] G4z2 | 
[V:2] B>cd2zG- | 
[V:3] G6 | 
[V:4] G,,2G,,>A,,B,,C,- | 
[V:1] z6 | 
[V:2] G/A/Bc2de- | 
[V:3] z6 | 
[V:4] C,D,E,2D,C, | 
[V:1] z6 | 
[V:2] ede/d/c2B | 
[V:3] z6 | 
[V:4] G,2>E,2D,2 | 
[V:1] E3G>FE- | 
[V:2] c2zcBG- | 
[V:3] G6 | 
[V:4] C,2C,2G,,C,- | 
[V:1] ED2CD2 | 
[V:2] G/A/BE2D2 | 
[V:3] G2GAB2 | 
[V:4] C,B,,C,2B,,2 | 
[V:1] E2zAB2 | 
[V:2] C>DEFG2 | 
[V:3] c4B2 | 
[V:4] A,,4G,,2 | 
[V:1] c>B A/G/FG/A/B/A//B// | 
[V:2] CFEFD2 | 
[V:3] A4G2 | 
[V:4] A,,>B,,C,D,_B,,2 | 
[V:1] c>B A/G/A2B- | 
[V:2] EA>Bcd2 | 
[V:3] A4z2 | 
[V:4] A,,2A,/G,/F,/E,/D,G,- | 
[V:1] B/A/G2^FG2 | 
[V:2] BcA2G2 | 
[V:3] z6 | 
[V:4] G,C,D,2G,,C,- | 
[V:1] zG2GFD | 
[V:2] G>ABc2B | 
[V:3] z6 | 
[V:4] C,/D,/E,/F,/G,E,D,2 | 
[V:1] E>FGAG3/F/ | 
[V:2] c>def2e | 
[V:3] c6- | 
[V:4] C,2>F,2C,2 | 
[V:1] A2B2AG | 
[V:2] f2d>efg- | 
[V:3] c2z2z2 | 
[V:4] F,A,G,2F,C, | 
[V:1] cde>dcB/A/ | 
[V:2] gfg2e3/f/ | 
[V:3] c6- | 
[V:4] E,F,C,2zC, | 
[V:1] GAGc2B | 
[V:2] gfecd2 | 
[V:3] c4G2 | 
[V:4] E,F,C,2zG, | 
[V:1] c4z2 | 
[V:2] c2zf>ed | 
[V:3] z6 | 
[V:4] A,2>F,2F,2 | 
[V:1] z2c>BAG | 
[V:2] cfec>de- | 
[V:3] z6 | 
[V:4] E,D,C,F,2E, | 
[V:1] cB2A2G | 
[V:2] edcA_B2 | 
[V:3] z6 | 
[V:4] C,G,A,F,G,2 | 
[V:1] A2zABd- | 
[V:2] A2A2G3/A/ | 
[V:3] d6- | 
[V:4] D,2D,2zG,,- | 
[V:1] d2Gc>BA | 
[V:2] B/c/d2<e2c | 
[V:3] d2c4 | 
[V:4] G,,/A,,/B,,C,>D,E,F, | 
[V:1] G/F/EDG2^F | 
[V:2] zedcd2 | 
[V:3] c2BGA2 | 
[V:4] E,/D,/C,G,E,D,F, | 
[V:1] G6 ||  
[V:2] e2ded2 ||  
[V:3] G6 ||  
[V:4] E,D,/C,/B,,C,G,,2 ||  
[V:1] [M:2/2]z4 | 
[V:2] [M:2/2]D4 | 
[V:3] [M:2/2]z4 | 
[V:4] [M:2/2]z4 | 
[V:1] z2D2- | 
[V:2] E2F2 | 
[V:3] z4 | 
[V:4] z4 | 
[V:1] D2E2 | 
[V:2] G4 | 
[V:3] z4 | 
[V:4] z4 | 
[V:1] F2G2- | 
[V:2] A2B2 | 
[V:3] z4 | 
[V:4] z4 | 
[V:1] G2A2 | 
[V:2] G2d2- | 
[V:3] z4 | 
[V:4] z4 | 
[V:1] B2G2 | 
[V:2] dcBA | 
[V:3] z4 | 
[V:4] z4 | 
[V:1] d3c | 
[V:2] G2z2 | 
[V:3] z4 | 
[V:4] z4 | 
[V:1] BAG2 | 
[V:2] d2Bc- | 
[V:3] z4 | 
[V:4] z4 | 
[V:1] z2d2 | 
[V:2] cB/A<GF/ | 
[V:3] z4 | 
[V:4] z4 | 
[V:1] Bc2B/A/ | 
[V:2] GA2G/F/ | 
[V:3] z4 | 
[V:4] z4 | 
[V:1] G>FGA- | 
[V:2] Ee2f- | 
[V:3] z4 | 
[V:4] z4 | 
[V:1] AG/F/E2 | 
[V:2] fd2^c | 
[V:3] z4 | 
[V:4] z4 | 
[V:1] D2E2- | 
[V:2] d>cA2 | 
[V:3] z4 | 
[V:4] z4 | 
[V:1] EF2D- | 
[V:2] GA2F | 
[V:3] z4 | 
[V:4] z4 | 
[V:1] D^CD2 | 
[V:2] E2D3/E/ | 
[V:3] z4 | 
[V:4] z4 | 
[V:1] D>EFG | 
[V:2] FGDG | 
[V:3] z4 | 
[V:4] z4 | 
[V:1] DGFB | 
[V:2] FBAd- | 
[V:3] z4 | 
[V:4] z4 | 
[V:1] Ad2G- | 
[V:2] dG2B- | 
[V:3] z4 | 
[V:4] z4 | 
[V:1] GB>cd- | 
[V:2] B/c/d2G- | 
[V:3] z4 | 
[V:4] z4 | 
[V:1] dcBA- | 
[V:2] GABc- | 
[V:3] z4 | 
[V:4] z4 | 
[V:1] A/G/^F/E/F2 | 
[V:2] c/B/A/G/A2 | 
[V:3] z4 | 
[V:4] z4 | 
[V:1] G2z2 | 
[V:2] G2zG | 
[V:3] z4 | 
[V:4] G,,C,>C,C, | 
[V:1] z4 | 
[V:2] c>ccc | 
[V:3] z4 | 
[V:4] C,C,2F,- | 
[V:1] z4 | 
[V:2] c2dc | 
[V:3] z4 | 
[V:4] F,E,D,A,- | 
[V:1] z4 | 
[V:2] fedf- | 
[V:3] z4 | 
[V:4] A,G,F,D,- | 
[V:1] z4 | 
[V:2] f/e/d2c | 
[V:3] z4 | 
[V:4] D,F,E,2 | 
[V:1] z4 | 
[V:2] BG2B | 
[V:3] z4 | 
[V:4] D,E,>D,G,- | 
[V:1] z4 | 
[V:2] A2G2 | 
[V:3] z4 | 
[V:4] G,F,E,C,- | 
[V:1] z4 | 
[V:2] A/G/c2B | 
[V:3] z4 | 
[V:4] C,/D,/E,D,2 | 
[V:1] G2Ac- | 
[V:2] c2zc | 
[V:3] z4 | 
[V:4] C,E,F,A, | 
[V:1] cBcd- | 
[V:2] d>cAB | 
[V:3] z4 | 
[V:4] G,2zG,- | 
[V:1] d/c/ABG | 
[V:2] Gd>cB/A/ | 
[V:3] z4 | 
[V:4] G,F,G,3/A,/ | 
[V:1] d>c B/A/G | 
[V:2] G2zg- | 
[V:3] z4 | 
[V:4] _B,>A,G,E, | 
[V:1] A2G2 | 
[V:2] gfeg- | 
[V:3] z4 | 
[V:4] D,2z2 | 
[V:1] zd2c | 
[V:2] gd2z | 
[V:3] z4 | 
[V:4] z4 | 
[V:1] Bd2G- | 
[V:2] g2fe | 
[V:3] z4 | 
[V:4] z4 | 
[V:1] Gzc2 | 
[V:2] g2c2 | 
[V:3] z4 | 
[V:4] z4 | 
[V:1] BAc2 | 
[V:2] zf2e | 
[V:3] z4 | 
[V:4] z4 | 
[V:1] F2GA- | 
[V:2] d>cBA- | 
[V:3] z4 | 
[V:4] z4 | 
[V:1] AG/F/E2 | 
[V:2] Ad2^c | 
[V:3] z4 | 
[V:4] D,2A,2 | 
[V:1] D2z2 | 
[V:2] d2d3/c/ | 
[V:3] z4 | 
[V:4] _B,>A,G,F, | 
[V:1] z4 | 
[V:2] BAGA- | 
[V:3] z4 | 
[V:4] G,>F,E,D, | 
[V:1] z4 | 
[V:2] A/G/FED | 
[V:3] z4 | 
[V:4] C,D,>C,B,, | 
[V:1] z4 | 
[V:2] EG2^F | 
[V:3] z4 | 
[V:4] A,,G,,A,,2 | 
[V:1] D>E F/G/A- | 
[V:2] G2zF- | 
[V:3] z4 | 
[V:4] G,,/A,,/B,,/C,/D,B,, | 
[V:1] A/B/c/B//c//dB | 
[V:2] F/G/ABG | 
[V:3] z4 | 
[V:4] A,,2G,,G, | 
[V:1] Ac>BA- | 
[V:2] c>BAd- | 
[V:3] z4 | 
[V:4] A,F,>E,F, | 
[V:1] AG2^F | 
[V:2] dBA2 | 
[V:3] z4 | 
[V:4] D,G,D,2 | 
[V:1] G4 ||  
[V:2] G4 ||  
[V:3] z4 ||  
[V:4] G,,4 ||  
[V:1] [M:3/2]G3B2A/G/ | 
[V:2] [M:3/2]d2BGBc | 
[V:3] [M:3/2]G6 | 
[V:4] [M:3/2]G,2>F,2E,2 | 
[V:1] FA2G^F3/E/ | 
[V:2] d>c A/B/c/B//c//d2- | 
[V:3] A6 | 
[V:4] D,F,2E,D,2 | 
[V:1] Gd>cB2A/G/ | 
[V:2] dB2Gd2 | 
[V:3] G6 | 
[V:4] G,,4zG,, | 
[V:1] F>G A/B/c2B/A/ | 
[V:2] z2d>ef2 | 
[V:3] A6 | 
[V:4] D,E,F,4 | 
[V:1] B2G2zd | 
[V:2] gd>cB/A/G2 | 
[V:3] G6 | 
[V:4] zG,>A,B,2A,/G,/ | 
[V:1] cA2G/F/E2 | 
[V:2] z2A>BcG- | 
[V:3] c6 | 
[V:4] A,>G,F,E,/D,/C,E, | 
[V:1] zFEA>Bc- | 
[V:2] GFGEFA- | 
[V:3] A2c4 | 
[V:4] D,2C,2A,,2 | 
[V:1] cB/A/G2zc | 
[V:2] AG/F/E2E3/F/ | 
[V:3] c2cc3 | 
[V:4] A,,>B,,C,2C,3/D,/ | 
[V:1] BG2B2A/G/ | 
[V:2] G>ABGB2 | 
[V:3] G6 | 
[V:4] E,>F, G,/F,/E,/D,/E,2 | 
[V:1] F>GAB>AG- | 
[V:2] zA2Gd2 | 
[V:3] d4B3/c/ | 
[V:4] D,2zG,>A,B,- | 
[V:1] G/F<AG/G2^F | 
[V:2] d>efed2 | 
[V:3] d>Bc>BA2 | 
[V:4] B,A,/G,/F,G,D,2 | 
[V:1] G6 ||  
[V:2] d6 ||  
[V:3] G6 ||  
[V:4] G,,6 ||  
[V:1] [M:2/2]z4 | 
[V:2] [M:2/2]D>EFG- | 
[V:3] [M:2/2]z4 | 
[V:4] [M:2/2]z4 | 
[V:1] z2D3/E/ | 
[V:2] G^FGB | 
[V:3] z4 | 
[V:4] z4 | 
[V:1] FG2^F | 
[V:2] AGA2 | 
[V:3] z4 | 
[V:4] z4 | 
[V:1] GBAG | 
[V:2] G2Ac- | 
[V:3] z4 | 
[V:4] z4 | 
[V:1] A2G2 | 
[V:2] cB/A/B2 | 
[V:3] z4 | 
[V:4] z4 | 
[V:1] Ac2B/A/ | 
[V:2] A3G/F/ | 
[V:3] z4 | 
[V:4] z4 | 
[V:1] B2A2- | 
[V:2] G2FD | 
[V:3] z4 | 
[V:4] z4 | 
[V:1] AG/F/G2 | 
[V:2] F2E2 | 
[V:3] z4 | 
[V:4] z4 | 
[V:1] FDF2 | 
[V:2] D2zd- | 
[V:3] z4 | 
[V:4] z4 | 
[V:1] E2D2 | 
[V:2] dcBG- | 
[V:3] z4 | 
[V:4] z4 | 
[V:1] zd2c | 
[V:2] GBA2 | 
[V:3] z4 | 
[V:4] z4 | 
[V:1] BGAB- | 
[V:2] GBcd- | 
[V:3] z4 | 
[V:4] z4 | 
[V:1] BAF2 | 
[V:2] dc/B/A2 | 
[V:3] z4 | 
[V:4] z4 | 
[V:1] GBcd- | 
[V:2] z4 | 
[V:3] z4 | 
[V:4] G,2A,B,- | 
[V:1] dc/B/A2 | 
[V:2] z4 | 
[V:3] z4 | 
[V:4] B,A,/G,/F,2 | 
[V:1] z4 | 
[V:2] GBcd- | 
[V:3] z4 | 
[V:4] G,>F,E,D,- | 
[V:1] z4 | 
[V:2] dc/B/A2 | 
[V:3] z4 | 
[V:4] D,G,2^F, | 
[V:1] G2AB- | 
[V:2] G2z2 | 
[V:3] z4 | 
[V:4] G,E,F,D,- | 
[V:1] BA/G/^F2 | 
[V:2] zd2c | 
[V:3] z4 | 
[V:4] D,C,/B,,/A,,2 | 
[V:1] Gd>cA | 
[V:2] BA/G/^F2 | 
[V:3] z4 | 
[V:4] G,,2D,2 | 
[V:1] BGF3/G/ | 
[V:2] GBA2 | 
[V:3] z4 | 
[V:4] zG,A,F,- | 
[V:1] A3A | 
[V:2] zA>Bc- | 
[V:3] z4 | 
[V:4] F,/E,/D,2C, | 
[V:1] A2zA- | 
[V:2] c/B/A/G<FE/ | 
[V:3] z4 | 
[V:4] F,>G,A,D,- | 
[V:1] A/B<cB/A/G/ | 
[V:2] F2zA- | 
[V:3] z4 | 
[V:4] D,C,/B,,/A,,2 | 
[V:1] F>EF2 | 
[V:2] AAA2 | 
[V:3] z4 | 
[V:4] zD,>C,B,,/A,,/ | 
[V:1] GBcd- | 
[V:2] BGAG- | 
[V:3] z4 | 
[V:4] G,,2C,B,, | 
[V:1] dc/B/A2 | 
[V:2] Gg2^f | 
[V:3] z4 | 
[V:4] G,,2zD, | 
[V:1] G2z2 | 
[V:2] g>f e/d/f- | 
[V:3] z4 | 
[V:4] E,G,F,A,- | 
[V:1] z4 | 
[V:2] f/e/d2^c | 
[V:3] z4 | 
[V:4] A,G,/F,/E,2 | 
[V:1] z4 | 
[V:2] d4 | 
[V:3] z4 | 
[V:4] D,2zG,,- | 
[V:1] z4 | 
[V:2] z2G2- | 
[V:3] z4 | 
[V:4] G,,2C,2 | 
[V:1] z4 | 
[V:2] Gc2B | 
[V:3] z4 | 
[V:4] B,,A,,2D,- | 
[V:1] z4 | 
[V:2] A2d2- | 
[V:3] z4 | 
[V:4] D,2G,,2 | 
[V:1] z4 | 
[V:2] d2G2 | 
[V:3] z4 | 
[V:4] zG,2F,/E,/ | 
[V:1] z4 | 
[V:2] zd2c/B/ | 
[V:3] z4 | 
[V:4] F,2G,2 | 
[V:1] z4 | 
[V:2] c2d2 | 
[V:3] z4 | 
[V:4] A,2D,G,- | 
[V:1] z4 | 
[V:2] e2Ad- | 
[V:3] z4 | 
[V:4] G,/F,/G,A,F,- | 
[V:1] z4 | 
[V:2] d/c/dec- | 
[V:3] z4 | 
[V:4] F,/E,/D,C,2 | 
[V:1] z4 | 
[V:2] c/B/AGc | 
[V:3] z4 | 
[V:4] F,2E,2 | 
[V:1] z4 | 
[V:2] dBA2 | 
[V:3] z4 | 
[V:4] D,G,2^F, | 
[V:1] z2zG | 
[V:2] GcBG | 
[V:3] z4 | 
[V:4] G,C,D,B,, | 
[V:1] c2dB | 
[V:2] A2DG | 
[V:3] z4 | 
[V:4] A,,2G,,2 | 
[V:1] A2Gc | 
[V:2] A/B/c/d/BA- | 
[V:3] z4 | 
[V:4] zF,G,F, | 
[V:1] BGA2 | 
[V:2] AG2^F | 
[V:3] z4 | 
[V:4] G,E,D,2 | 
[V:1] DGA/B/c/d/ | 
[V:2] G2cA | 
[V:3] z4 | 
[V:4] zG,F,2 | 
[V:1] BA>GG- | 
[V:2] GABc | 
[V:3] z4 | 
[V:4] G,F,G,E, | 
[V:1] G^FBB/A/- | 
[V:2] A2Gd- | 
[V:3] z4 | 
[V:4] D,2zG, | 
[V:1] A/G/G2^F | 
[V:2] dc/B/A2 | 
[V:3] z4 | 
[V:4] F,G,D,2 | 
[V:1] G4 ||  
[V:2] G4 ||  
[V:3] z4 ||  
[V:4] G,,4 ||  
[V:1] [M:3/2]G6- | 
[V:2] [M:3/2]d6- | 
[V:3] [M:3/2]G6- | 
[V:4] [M:3/2]G,,6- | 
[V:1] G2F4 | 
[V:2] d6 | 
[V:3] G2A4 | 
[V:4] G,,2D,4 | 
[V:1] G2B3A | 
[V:2] B2G2B2 | 
[V:3] G6- | 
[V:4] E,2>F,2G,2 | 
[V:1] G4^F2 | 
[V:2] c2d4 | 
[V:3] G2A4 | 
[V:4] E,2D,4 | 
[V:1] G6 | 
[V:2] B2c4 | 
[V:3] G4c2- | 
[V:4] E,2C,4 | 
[V:1] A4G2 | 
[V:2] A2>B2cd | 
[V:3] c6 | 
[V:4] F,4C,2- | 
[V:1] E2A3B | 
[V:2] e2f3e | 
[V:3] c4A2- | 
[V:4] C,2F,4 | 
[V:1] c2>B2A2 | 
[V:2] c4d2 | 
[V:3] A6 | 
[V:4] F,6 | 
[V:1] G4d2- | 
[V:2] e4d2 | 
[V:3] c4G2- | 
[V:4] E,2C,2B,,2 | 
[V:1] d2B3A | 
[V:2] B2G2z2 | 
[V:3] G2d4 | 
[V:4] G,,4D,2 | 
[V:1] G2D2E2 | 
[V:2] G2>A2B2 | 
[V:3] B4G2- | 
[V:4] E,2G,3F, | 
[V:1] G4^F2 | 
[V:2] c2d4 | 
[V:3] G2A4 | 
[V:4] E,2D,4 | 
[V:1] G4z2 | 
[V:2] d4B2 | 
[V:3] G6- | 
[V:4] G,,2>A,,2B,,2 | 
[V:1] G4E2 | 
[V:2] G2c3B | 
[V:3] G2z2z2 | 
[V:4] C,2>D,2E,2 | 
[V:1] C2F3E | 
[V:2] AGF2_B2- | 
[V:3] z6 | 
[V:4] F,2>E,2D,C, | 
[V:1] DCB,2A,2 | 
[V:2] BAG2F2 | 
[V:3] z6 | 
[V:4] _B,,2G,2D,2 | 
[V:1] G,2A,4 | 
[V:2] G4^F2 | 
[V:3] z6 | 
[V:4] E,2D,4 | 
[V:1] z2G,2G2 | 
[V:2] G2A2G2 | 
[V:3] z6 | 
[V:4] G,,2C,2B,,2 | 
[V:1] E2F4 | 
[V:2] c4B2 | 
[V:3] z6 | 
[V:4] C,2D,4 | 
[V:1] E4z2 | 
[V:2] c4B2- | 
[V:3] G6- | 
[V:4] C,D,E,F,G,F, | 
[V:1] G4E2 | 
[V:2] B2c4 | 
[V:3] G2G4 | 
[V:4] E,D,E,4 | 
[V:1] F2A2G2 | 
[V:2] d>cA2G2 | 
[V:3] d4e2- | 
[V:4] D,2F,2E,2 | 
[V:1] c4B2 | 
[V:2] g6 | 
[V:3] e2d4 | 
[V:4] C,2G,4 | 
[V:1] c2BA2G/F/ | 
[V:2] e6 | 
[V:3] c6- | 
[V:4] C,6 | 
[V:1] E2A3B | 
[V:2] g2f3e | 
[V:3] c2c4 | 
[V:4] C,2F,4 | 
[V:1] c2>B2AB | 
[V:2] c6 | 
[V:3] A4c2- | 
[V:4] F,2F,3G, | 
[V:1] c2d3c | 
[V:2] z6 | 
[V:3] c2G4 | 
[V:4] A,2B,4 | 
[V:1] BA2<B2A | 
[V:2] g4e2 | 
[V:3] d4c2- | 
[V:4] G,4A,2 | 
[V:1] A4G2 | 
[V:2] f2d4 | 
[V:3] c2_B4 | 
[V:4] F,2G,4 | 
[V:1] A4A2 | 
[V:2] d4f2 | 
[V:3] A4z2 | 
[V:4] D,6 | 
[V:1] c2c2A2 | 
[V:2] c2f2e2- | 
[V:3] A4c2- | 
[V:4] z6 | 
[V:1] A2d3c | 
[V:2] e2d4 | 
[V:3] c2A4 | 
[V:4] z2D,4 | 
[V:1] B2A3G | 
[V:2] f2>e2d2 | 
[V:3] d4B2- | 
[V:4] D,2F,2G,2- | 
[V:1] G4^F2 | 
[V:2] d6 | 
[V:3] B2A4 | 
[V:4] G,2D,4 | 
[V:1] G6 |]  
[V:2] d6 |]  
[V:3] G6 |]  
[V:4] G,,6 |]  


